site/assets/images/motion/img-elevation-perspective.svg

<?xml version="1.0" encoding="UTF-8" standalone="no"?>
<svg width="453px" height="260px" viewBox="0 0 453 260" version="1.1" xmlns="http://www.w3.org/2000/svg" xmlns:xlink="http://www.w3.org/1999/xlink" xmlns:sketch="http://www.bohemiancoding.com/sketch/ns">
    <!-- Generator: Sketch 3.3.3 (12081) - http://www.bohemiancoding.com/sketch -->
    <title>Imported Layers</title>
    <desc>Created with Sketch.</desc>
    <defs></defs>
    <g id="Page-1" stroke="none" stroke-width="1" fill="none" fill-rule="evenodd" sketch:type="MSPage">
        <g id="motion" sketch:type="MSArtboardGroup" transform="translate(-765.000000, -1586.000000)">
            <g id="Imported-Layers" sketch:type="MSLayerGroup" transform="translate(765.000000, 1586.000000)">
                <path d="M0.42844713,202.661258 L173.78835,254.072521 L452.843819,152.532696 L279.725003,101.030598 L0.42844713,202.661258 L0.42844713,202.661258 Z" id="Stroke-1" stroke="#EBEBEB" stroke-width="0.25" sketch:type="MSShapeGroup"></path>
                <path d="M312.337958,10.6387113 L312.337958,131.920021 L160.609813,187.12984 L160.609813,65.8485309 L312.337958,10.6387113 L312.337958,10.6387113 Z M315.507915,3.42145361 L159.690924,60.1396856 C156.972834,61.1870412 154.984894,63.865299 154.984894,66.9509381 L154.982139,67.1518763 L154.982139,190.150794 C154.982139,192.15467 156.607758,193.835119 158.61223,193.835119 C159.007613,193.835119 159.434683,193.729144 159.790115,193.613536 L316.638961,136.501686 C317.413196,136.293866 318.026248,135.56168 318.026248,134.722144 L318.026248,5.37578351 L318.027625,5.12392268 C318.027625,4.12198454 317.213438,3.30859794 316.211891,3.30859794 C316.043819,3.30859794 315.881257,3.33199485 315.726961,3.37465979 L315.507915,3.42145361 L315.507915,3.42145361 Z" id="Fill-2" fill="#000000" sketch:type="MSShapeGroup"></path>
                <path d="M312.337958,10.6387113 L312.337958,131.920021 L160.609813,187.12984 L160.609813,65.8485309 L312.337958,10.6387113" id="Fill-3" fill="#E8F2FB" sketch:type="MSShapeGroup"></path>
                <path d="M180.356955,83.2640876 L180.356955,137.284794 M197.51826,65.3682062 L241.259819,49.3963763 M195.192798,76.1817062 L242.717366,90.3464691 M168.98864,68.4538454 L121.464073,54.2877062" id="Stroke-4" stroke="#000000" stroke-width="0.25" sketch:type="MSShapeGroup"></path>
                <path d="M240.973269,52.4641237 L240.973269,46.7938144 L244.58545,48.245799 L240.973269,52.4641237" id="Fill-5" fill="#000000" sketch:type="MSShapeGroup"></path>
                <path d="M237.544314,91.0208505 L243.12377,88.9908247 L247.413752,91.6566959 L237.544314,91.0208505" id="Fill-6" fill="#000000" sketch:type="MSShapeGroup"></path>
                <path d="M125.373825,53.2293402 L119.794369,55.259366 L115.504387,52.5934948 L125.373825,53.2293402" id="Fill-7" fill="#000000" sketch:type="MSShapeGroup"></path>
                <path d="M178.302888,137.937155 L180.356955,141.487979 L183.430477,136.070907 L178.302888,137.937155" id="Fill-8" fill="#000000" sketch:type="MSShapeGroup"></path>
                <path d="M220.400918,214.577165 C220.20116,214.633593 219.989003,214.650108 219.772713,214.650108 C219.480653,214.650108 219.199613,214.604691 218.936483,214.517985 L207.367033,211.0635 C206.314514,210.693278 205.558187,209.689964 205.558187,208.510485 C205.558187,207.344768 206.29936,206.349711 207.336725,205.969856 L213.538876,203.650809 C213.796495,203.570985 214.070647,203.526943 214.354441,203.526943 C214.563843,203.526943 214.767734,203.55034 214.96336,203.594381 L226.870332,207.153464 C227.866369,207.552588 228.570344,208.527 228.570344,209.665191 C228.570344,210.612077 228.082659,211.446108 227.344242,211.929186 C227.344242,211.929186 225.765462,213.048108 220.400918,214.577165" id="Fill-9" fill="#F2F2F2" sketch:type="MSShapeGroup"></path>
                <path d="M244.460085,194.915505 C244.460085,195.877531 243.678961,196.65651 242.715988,196.65651 C241.753015,196.65651 240.973269,195.877531 240.973269,194.915505 C240.973269,193.954856 241.753015,193.1745 242.715988,193.1745 C243.678961,193.1745 244.460085,193.954856 244.460085,194.915505" id="Fill-10" fill="#CCCCCC" sketch:type="MSShapeGroup"></path>
                <path d="M262.928773,199.08566 L308.709245,182.427062 L288.394514,176.40167 L242.717366,193.023108 L262.928773,199.08566" id="Fill-11" fill="#F2F2F2" sketch:type="MSShapeGroup"></path>
                <path d="M243.053511,196.65651 L248.320242,194.73934 L243.293221,193.274969 C243.293221,193.274969 244.431154,193.69749 244.460085,194.915505 C244.489015,196.133521 243.053511,196.65651 243.053511,196.65651" id="Fill-12" fill="#B7B7B7" sketch:type="MSShapeGroup"></path>
                <path d="M235.147215,76.5464227 L235.147215,78.0011598 L239.021148,79.1489845 L235.147215,81.2794794 L235.147215,82.7383454 L240.973269,84.4655876 L240.973269,83.0053454 L236.906465,81.7997165 L240.973269,79.7063814 L240.973269,78.2516443 L235.147215,76.5464227" id="Fill-13" fill="#000000" sketch:type="MSShapeGroup"></path>
                <path d="M230.970199,81.5671237 L232.29136,81.9469794 L232.29136,80.1013763 L234.185619,80.6629021 L234.185619,79.5673763 L232.29136,79.0044742 L232.305136,77.1038196 L230.970199,76.7184588 L230.970199,78.6246186 L229.093849,78.0617165 L229.093849,79.1586186 L230.970199,79.7215206 L230.970199,81.5671237" id="Fill-14" fill="#000000" sketch:type="MSShapeGroup"></path>
                <path d="M139.359662,48.174232 L139.359662,49.6289691 L143.233595,50.7767938 L139.359662,52.9059124 L139.359662,54.3661546 L145.185716,56.0920206 L145.185716,54.6331546 L141.12029,53.4275258 L145.185716,51.3328144 L145.185716,49.8794536 L139.359662,48.174232" id="Fill-15" fill="#000000" sketch:type="MSShapeGroup"></path>
                <path d="M138.398066,52.2907113 L138.398066,51.1938093 L133.306296,49.6881495 L133.306296,50.7850515 L138.398066,52.2907113" id="Fill-16" fill="#000000" sketch:type="MSShapeGroup"></path>
                <path d="M185.769716,75.0008505 L185.364689,74.6292526 C185.596133,74.3980361 185.766961,74.1874639 185.877172,73.9975361 C185.987384,73.8076082 186.050755,73.6052938 186.068665,73.3905928 C185.885438,73.3575619 185.754562,73.2942526 185.674659,73.2006649 C185.594755,73.1070773 185.554804,72.9804588 185.554804,72.8208093 C185.554804,72.6556546 185.609909,72.5166495 185.715988,72.4037938 C185.823444,72.2909381 185.97774,72.2345103 186.174743,72.2345103 C186.395166,72.2345103 186.563239,72.3019485 186.678961,72.4368247 C186.794683,72.571701 186.852544,72.7602526 186.852544,73.0024794 C186.852544,73.3603144 186.776773,73.6892474 186.625233,73.9892784 C186.473692,74.2893093 186.18852,74.6265 185.769716,75.0008505" id="Fill-17" fill="#000000" sketch:type="MSShapeGroup"></path>
                <path d="M184.561523,71.3784588 C184.34661,73.6273144 182.857378,75.3229021 181.237269,75.1673814 C179.615782,75.0132371 178.476471,73.0657887 178.691384,70.8183093 C178.906296,68.5708299 180.394151,66.8752423 182.015637,67.0293866 C183.637124,67.1835309 184.776435,69.1309794 184.561523,71.3784588 L184.561523,71.3784588 Z M181.731843,68.075366 C180.912145,68.0547216 180.216435,69.3787113 180.173728,71.0302577 C180.132399,72.6831804 180.760604,74.040201 181.577547,74.0594691 C182.397245,74.0801134 183.092955,72.7575 183.137039,71.1059536 C183.175613,69.4516546 182.548785,68.094634 181.731843,68.075366 L181.731843,68.075366 Z" id="Fill-18" fill="#000000" sketch:type="MSShapeGroup"></path>
                <path d="M192.750236,68.3561289 C192.533946,70.6036082 191.046091,72.2991959 189.424604,72.1436753 C187.804495,71.9909072 186.663807,70.0434588 186.878719,67.7946031 C187.093631,65.5471237 188.582864,63.8515361 190.20435,64.0056804 C191.824459,64.161201 192.96377,66.1086495 192.750236,68.3561289 L192.750236,68.3561289 Z M189.919178,65.0516598 C189.09948,65.0310155 188.40377,66.3550052 188.361063,68.0079278 C188.321112,69.6594742 188.949317,71.0164948 189.76626,71.0371392 C190.58458,71.0564072 191.28029,69.7337938 191.324375,68.0822474 C191.364326,66.4293247 190.736121,65.0723041 189.919178,65.0516598 L189.919178,65.0516598 Z" id="Fill-19" fill="#000000" sketch:type="MSShapeGroup"></path>
                <path d="M158.026731,193.774562 L151.886574,191.967495 C150.408363,191.509191 149.333801,190.131526 149.333801,188.503376 L149.348955,186.972943 L149.313136,63.1289845 L149.311758,62.9541959 C149.311758,59.7501959 151.392,57.0306495 154.275408,56.07 L154.43797,55.9901753 L305.152169,1.14644845 L306.580785,0.657865979 C306.706151,0.630340206 306.83565,0.61657732 306.967903,0.61657732 C307.163529,0.61657732 307.352266,0.648231959 307.528604,0.704659794 L316.793257,3.38842268 C316.578344,3.3375 316.211891,3.30034021 316.211891,3.30034021 C316.043819,3.30034021 315.881257,3.32373711 315.726961,3.36640206 L315.507915,3.41319588 L159.690924,60.1314278 C156.972834,61.1787835 154.984894,63.8570412 154.984894,66.9426804 L154.982139,67.1436186 L154.982139,190.142536 C154.982139,191.98401 156.242683,193.250196 158.026731,193.774562" id="Fill-20" fill="#EBEBEB" sketch:type="MSShapeGroup"></path>
                <path d="M217.36597,172.696701 L217.36597,177.952747 C217.36597,179.591907 218.452931,180.97783 219.949051,181.427876 L233.995505,185.675103 C234.662284,185.876041 235.370393,185.984768 236.101921,185.984768 C236.968459,185.984768 237.799178,185.833376 238.569281,185.555366 L265.612423,175.62682 C265.897595,175.529103 266.102864,175.257974 266.102864,174.940052 C266.102864,174.605613 265.878308,174.324851 265.572471,174.240897 L248.729402,169.302773 L248.729402,161.177165 L217.36597,172.696701" id="Fill-21" fill="#F2F2F2" sketch:type="MSShapeGroup"></path>
                <path d="M236.327855,187.12984 C236.327855,187.12984 235.070066,187.047263 234.480435,186.893119 L218.933728,182.162814 C217.484447,181.687995 216.43606,180.324093 216.43606,178.715211 L216.43606,172.988474 L217.370103,172.696701 L217.370103,177.952747 C217.37148,179.591907 218.458441,180.97783 219.953184,181.427876 L234.001015,185.675103 C235.404834,186.01367 236.327855,185.980639 236.327855,185.980639" id="Fill-22" fill="#CCCCCC" sketch:type="MSShapeGroup"></path>
                <path d="M266.098731,174.940052 L266.098731,174.940052 C266.098731,175.259351 265.892085,175.529103 265.60829,175.62682 L238.565148,185.555366 C237.793668,185.833376 237.012544,185.984768 236.327855,185.980639 L236.319589,187.12984 C237.288073,187.12984 238.213849,186.939912 239.058344,186.59584 L265.601402,176.858598 C265.890707,176.763634 266.098731,176.491129 266.098731,176.170454 L266.098731,174.940052" id="Fill-23" fill="#EBEBEB" sketch:type="MSShapeGroup"></path>
                <path d="M206.072048,210.060186 L208.163311,210.628593 L218.896532,213.832593 C219.141752,213.911041 219.402127,213.953706 219.673523,213.953706 L219.869148,214.757459 C219.577088,214.757459 219.296048,214.712041 219.031541,214.625335 L207.463468,211.170851 C206.919299,210.980923 206.455033,210.620335 206.134042,210.156526 L206.072048,210.060186" id="Fill-24" fill="#CCCCCC" sketch:type="MSShapeGroup"></path>
                <path d="M173.813148,259.13451 L173.813148,254.072521 L0.516616314,202.658505 L0.516616314,207.841608 L173.813148,259.13451" id="Fill-25" fill="#CCCCCC" sketch:type="MSShapeGroup"></path>
                <path d="M452.843819,152.532696 L452.843819,157.601567 L173.813148,259.13451 L173.813148,254.072521 L452.843819,152.532696" id="Fill-26" fill="#EBEBEB" sketch:type="MSShapeGroup"></path>
                <path d="M155.450538,64.4061804 C155.071686,65.2663608 154.984894,66.9426804 154.984894,66.9426804 L154.982139,67.1436186 L154.982139,190.142536 C154.982139,191.98401 156.242683,193.250196 158.026731,193.774562 L151.886574,191.967495 C150.408363,191.509191 149.333801,190.131526 149.333801,188.503376 L149.348955,186.972943 L149.313136,63.1289845 L149.320024,62.6431546 L155.450538,64.4061804" id="Fill-27" fill="#CCCCCC" sketch:type="MSShapeGroup"></path>
            </g>
        </g>
    </g>
</svg>

<svg width="453" height="260" xmlns="http://www.w3.org/2000/svg"><g fill="none" fill-rule="evenodd"><path d="M.428 202.66l173.36 51.413 279.056-101.54-173.12-51.502L.43 202.66z" stroke="#EBEBEB" stroke-width=".25"/><path d="M312.338 10.64v121.28L160.61 187.13V65.85l151.728-55.21zm3.17-7.22L159.69 60.14c-2.717 1.047-4.705 3.725-4.705 6.81l-.003.202v123c0 2.003 1.626 3.683 3.63 3.683.396 0 .823-.106 1.178-.22L316.64 136.5c.773-.208 1.386-.94 1.386-1.78V5.376l.002-.252c0-1.002-.815-1.815-1.816-1.815-.168 0-.33.022-.485.065l-.22.046z" fill="#000"/><path d="M312.338 10.64v121.28L160.61 187.13V65.85l151.728-55.21" fill="#E8F2FB"/><path d="M180.357 83.264v54.02m17.16-71.916l43.743-15.972m-46.067 26.786l47.524 14.164M168.99 68.454l-47.526-14.166" stroke="#000" stroke-width=".25"/><path d="M240.973 52.464v-5.67l3.612 1.452-3.612 4.218M237.544 91.02l5.58-2.03 4.29 2.667-9.87-.636M125.374 53.23l-5.58 2.03-4.29-2.667 9.87.636M178.303 137.937l2.054 3.55 3.073-5.416-5.127 1.867" fill="#000"/><path d="M220.4 214.577c-.2.057-.41.073-.627.073-.292 0-.573-.045-.837-.132l-11.57-3.454c-1.05-.37-1.808-1.374-1.808-2.554 0-1.165.74-2.16 1.78-2.54l6.2-2.32c.258-.08.533-.123.816-.123.21 0 .414.023.61.067l11.906 3.56c.996.4 1.7 1.373 1.7 2.51 0 .948-.487 1.782-1.226 2.265 0 0-1.58 1.118-6.943 2.647" fill="#F2F2F2"/><path d="M244.46 194.916c0 .962-.78 1.74-1.744 1.74-.963 0-1.743-.778-1.743-1.74 0-.96.78-1.742 1.743-1.742.963 0 1.744.78 1.744 1.742" fill="#CCC"/><path d="M262.93 199.086l45.78-16.66-20.315-6.024-45.678 16.62 20.212 6.064" fill="#F2F2F2"/><path d="M243.054 196.657l5.266-1.918-5.027-1.465s1.138.422 1.167 1.64c.03 1.22-1.406 1.742-1.406 1.742" fill="#B7B7B7"/><path d="M235.147 76.546V78l3.874 1.15-3.873 2.13v1.458l5.826 1.728v-1.46l-4.067-1.206 4.067-2.094v-1.454l-5.826-1.706M230.97 81.567l1.32.38V80.1l1.896.563v-1.096l-1.895-.563.015-1.9-1.335-.386v1.907l-1.876-.563v1.097l1.876.562v1.845M139.36 48.174v1.455l3.874 1.147-3.874 2.13v1.46l5.826 1.725v-1.46l-4.066-1.204 4.066-2.095V49.88l-5.826-1.706M138.398 52.29v-1.096l-5.092-1.506v1.097l5.092 1.506M185.77 75l-.405-.37c.23-.232.402-.443.512-.632.11-.19.174-.393.192-.607-.185-.032-.315-.096-.395-.19-.08-.093-.12-.22-.12-.38 0-.164.055-.303.16-.416.108-.113.263-.17.46-.17.22 0 .388.068.504.203.115.135.173.323.173.565 0 .358-.076.687-.228.987-.15.3-.436.636-.855 1.01M184.562 71.378c-.215 2.25-1.705 3.945-3.325 3.79-1.62-.155-2.76-2.102-2.546-4.35.216-2.247 1.704-3.943 3.326-3.79 1.62.156 2.76 2.103 2.546 4.35zm-2.83-3.303c-.82-.02-1.516 1.304-1.558 2.955-.042 1.653.587 3.01 1.404 3.03.82.02 1.515-1.303 1.56-2.954.038-1.654-.59-3.01-1.406-3.03zM192.75 68.356c-.216 2.248-1.704 3.943-3.325 3.788-1.62-.153-2.76-2.1-2.546-4.35.214-2.247 1.703-3.942 3.324-3.788 1.62.155 2.76 2.103 2.546 4.35zm-2.83-3.304c-.82-.02-1.516 1.303-1.56 2.956-.04 1.65.59 3.008 1.406 3.03.82.018 1.514-1.304 1.558-2.956.04-1.653-.588-3.01-1.405-3.03z" fill="#000"/><path d="M158.027 193.775l-6.14-1.808c-1.48-.458-2.553-1.835-2.553-3.464l.015-1.53-.037-123.844v-.176c0-3.204 2.08-5.923 4.962-6.884l.163-.08L305.152 1.146l1.43-.488c.124-.028.254-.04.386-.04.196 0 .384.03.56.087l9.265 2.683c-.215-.05-.58-.088-.58-.088-.17 0-.332.024-.486.066l-.22.047L159.692 60.13c-2.717 1.05-4.705 3.727-4.705 6.813l-.003.2v123c0 1.84 1.26 3.107 3.045 3.632" fill="#EBEBEB"/><path d="M217.366 172.697v5.256c0 1.64 1.087 3.025 2.583 3.475l14.046 4.247c.666.2 1.374.31 2.106.31.866 0 1.697-.152 2.467-.43l27.042-9.928c.286-.098.49-.37.49-.687 0-.334-.224-.615-.53-.7l-16.843-4.937v-8.126l-31.364 11.52" fill="#F2F2F2"/><path d="M236.328 187.13s-1.258-.083-1.848-.237l-15.546-4.73c-1.45-.475-2.498-1.84-2.498-3.448v-5.727l.934-.29v5.255c0 1.64 1.088 3.025 2.583 3.475L234 185.675c1.405.34 2.328.306 2.328.306" fill="#CCC"/><path d="M266.1 174.94c0 .32-.208.59-.492.687l-27.043 9.928c-.77.278-1.552.43-2.237.426l-.008 1.15c.968 0 1.894-.19 2.738-.534l26.543-9.737c.29-.096.5-.37.5-.69v-1.23" fill="#EBEBEB"/><path d="M206.072 210.06l2.09.57 10.735 3.203c.245.078.505.12.777.12l.195.804c-.293 0-.574-.045-.838-.132l-11.57-3.454c-.543-.19-1.007-.55-1.328-1.013l-.062-.097M173.813 259.135v-5.062L.517 202.66v5.182l173.296 51.293" fill="#CCC"/><path d="M452.844 152.533v5.07l-279.03 101.532v-5.062l279.03-101.54" fill="#EBEBEB"/><path d="M155.45 64.406c-.378.86-.465 2.537-.465 2.537l-.003.2v123c0 1.84 1.26 3.107 3.045 3.632l-6.14-1.808c-1.48-.458-2.553-1.835-2.553-3.464l.015-1.53-.037-123.844.007-.487 6.13 1.763" fill="#CCC"/></g></svg>
